Simply black circles/scalable/actions/folder-new.svg

<?xml version="1.0" encoding="UTF-8" standalone="no"?>
<!-- Created with Inkscape (http://www.inkscape.org/) -->

<svg
   xmlns:dc="http://purl.org/dc/elements/1.1/"
   xmlns:cc="http://creativecommons.org/ns#"
   xmlns:rdf="http://www.w3.org/1999/02/22-rdf-syntax-ns#"
   xmlns:svg="http://www.w3.org/2000/svg"
   xmlns="http://www.w3.org/2000/svg"
   xmlns:xlink="http://www.w3.org/1999/xlink"
   xmlns:sodipodi="http://sodipodi.sourceforge.net/DTD/sodipodi-0.dtd"
   xmlns:inkscape="http://www.inkscape.org/namespaces/inkscape"
   id="svg3337"
   width="24"
   height="24"
   version="1.0"
   sodipodi:docname="folder-new.svg"
   inkscape:version="0.92.3 (2405546, 2018-03-11)">
  <metadata
     id="metadata56">
    <rdf:RDF>
      <cc:Work
         rdf:about="">
        <dc:format>image/svg+xml</dc:format>
        <dc:type
           rdf:resource="http://purl.org/dc/dcmitype/StillImage" />
        <dc:title></dc:title>
      </cc:Work>
    </rdf:RDF>
  </metadata>
  <sodipodi:namedview
     pagecolor="#ffffff"
     bordercolor="#666666"
     borderopacity="1"
     objecttolerance="10"
     gridtolerance="10"
     guidetolerance="10"
     inkscape:pageopacity="0"
     inkscape:pageshadow="2"
     inkscape:window-width="1366"
     inkscape:window-height="717"
     id="namedview54"
     showgrid="false"
     inkscape:zoom="11.25"
     inkscape:cx="12"
     inkscape:cy="12"
     inkscape:window-x="0"
     inkscape:window-y="25"
     inkscape:window-maximized="1"
     inkscape:current-layer="svg3337" />
  <defs
     id="defs3339">
    <linearGradient
       id="linearGradient2547"
       x1="18.031"
       x2="20.055"
       y1="16.408"
       y2="24.628"
       gradientTransform="matrix(0.44503,0,0,0.40237,2.8192,3.8499)"
       gradientUnits="userSpaceOnUse">
      <stop
         id="stop2687"
         style="stop-color:#fff;stop-opacity:.27451"
         offset="0" />
      <stop
         id="stop2689"
         style="stop-color:#fff;stop-opacity:.078431"
         offset="1" />
    </linearGradient>
    <radialGradient
       id="radialGradient2550"
       cx="4.02"
       cy="5.5927"
       r="10.273"
       gradientTransform="matrix(-0.016802,1.3943,-1.7966,-0.021651,14.152,2.1566)"
       gradientUnits="userSpaceOnUse">
      <stop
         id="stop3754"
         style="stop-color:#fff"
         offset="0" />
      <stop
         id="stop3760"
         style="stop-color:#fff"
         offset=".84754" />
      <stop
         id="stop3756"
         style="stop-color:#fff;stop-opacity:0"
         offset="1" />
    </radialGradient>
    <linearGradient
       id="linearGradient2555"
       x1="9.7046"
       x2="9.7046"
       y1="20.882"
       y2="4.303"
       gradientTransform="matrix(0.99458,0,0,0.99458,-0.33927,1.7178)"
       gradientUnits="userSpaceOnUse">
      <stop
         id="stop2605"
         style="stop-color:#bb2b12"
         offset="0" />
      <stop
         id="stop2607"
         style="stop-color:#cd7233"
         offset="1" />
    </linearGradient>
    <radialGradient
       id="radialGradient2553"
       cx="7.8186"
       cy="8.5609"
       r="11.268"
       gradientTransform="matrix(1.69,0,0,1.0436,-5.449,0.96175)"
       gradientUnits="userSpaceOnUse">
      <stop
         id="stop2612"
         style="stop-color:#f0c178"
         offset="0" />
      <stop
         id="stop2614"
         style="stop-color:#e18941"
         offset=".5" />
      <stop
         id="stop2616"
         style="stop-color:#ec4f18"
         offset="1" />
    </radialGradient>
    <linearGradient
       id="linearGradient2560"
       x1="9.8764"
       x2="9.8764"
       y1="2.6015"
       y2="23.062"
       gradientUnits="userSpaceOnUse">
      <stop
         id="stop5159"
         style="stop-color:#c1c1c1"
         offset="0" />
      <stop
         id="stop5161"
         style="stop-color:#909090"
         offset="1" />
    </linearGradient>
    <linearGradient
       id="linearGradient2558"
       x1="-28.531"
       x2="-28.531"
       y1="17.956"
       y2="37.503"
       gradientTransform="translate(34.378,-14.501)"
       gradientUnits="userSpaceOnUse">
      <stop
         id="stop11113"
         style="stop-color:#fff"
         offset="0" />
      <stop
         id="stop11115"
         style="stop-color:#cdcdcd"
         offset=".91014" />
      <stop
         id="stop11117"
         style="stop-color:#a1a1a1"
         offset="1" />
    </linearGradient>
    <radialGradient
       id="radialGradient2532"
       cx="605.71"
       cy="486.65"
       r="117.14"
       gradientTransform="matrix(-2.7744,0,0,1.9697,112.76,-872.89)"
       gradientUnits="userSpaceOnUse"
       xlink:href="#linearGradient5060" />
    <linearGradient
       id="linearGradient5060">
      <stop
         id="stop5062"
         offset="0" />
      <stop
         id="stop5064"
         style="stop-opacity:0"
         offset="1" />
    </linearGradient>
    <radialGradient
       id="radialGradient2530"
       cx="605.71"
       cy="486.65"
       r="117.14"
       gradientTransform="matrix(2.7744,0,0,1.9697,-1891.6,-872.89)"
       gradientUnits="userSpaceOnUse"
       xlink:href="#linearGradient5060" />
    <linearGradient
       id="linearGradient2528"
       x1="302.86"
       x2="302.86"
       y1="366.65"
       y2="609.51"
       gradientTransform="matrix(2.7744,0,0,1.9697,-1892.2,-872.89)"
       gradientUnits="userSpaceOnUse">
      <stop
         id="stop5050"
         style="stop-opacity:0"
         offset="0" />
      <stop
         id="stop5056"
         offset=".5" />
      <stop
         id="stop5052"
         style="stop-opacity:0"
         offset="1" />
    </linearGradient>
    <linearGradient
       id="linearGradient2995"
       x1="24.104"
       x2="24.104"
       y1="15.169"
       y2="32.485"
       gradientTransform="matrix(0.46913,0,0,0.4663,27.7005,6.8085)"
       gradientUnits="userSpaceOnUse">
      <stop
         id="stop2266"
         style="stop-color:#d7e866"
         offset="0" />
      <stop
         id="stop2268"
         style="stop-color:#8cab2a"
         offset="1" />
    </linearGradient>
    <linearGradient
       id="linearGradient2992"
       x1="24.139"
       x2="24.139"
       y1="7.0775"
       y2="47.273"
       gradientTransform="matrix(0.2818,0,0,0.2801,32.197,11.015)"
       gradientUnits="userSpaceOnUse">
      <stop
         id="stop4224"
         style="stop-color:#fff"
         offset="0" />
      <stop
         id="stop4226"
         style="stop-color:#fff;stop-opacity:0"
         offset="1" />
    </linearGradient>
  </defs>
  <path
     style="opacity:1;fill:#333333;fill-opacity:0.9953271;stroke:none;stroke-width:1.5804497"
     d="M 1.8222656 2.7011719 C 0.81021563 2.7011719 -0.005859375 3.5133085 -0.005859375 4.5253906 L -0.005859375 7.5722656 C -0.005859375 7.6196056 0.006305625 7.6627672 0.009765625 7.7089844 L 0.009765625 16.619141 L -0.0078125 16.619141 L -0.0078125 19.472656 C -0.0078125 20.484708 0.80630538 21.298828 1.8183594 21.298828 L 22.177734 21.298828 C 23.18979 21.298828 24.003906 20.484708 24.003906 19.472656 L 24.003906 17.029297 L 24.007812 17.029297 L 24.007812 4.7382812 L 10.787109 4.7382812 L 8.7460938 2.7011719 L 1.8222656 2.7011719 z M 2.6738281 6.7871094 L 2.7421875 6.7871094 L 23.972656 6.7871094 L 23.982422 8.1777344 L 3.5078125 8.1777344 L 3.5078125 10.875 C 3.5078125 11.391004 3.1658365 11.806641 2.7421875 11.806641 C 2.3185425 11.806641 1.9785156 11.391004 1.9785156 10.875 L 1.9785156 7.71875 C 1.9785156 7.672533 1.99465 7.6324026 2 7.5878906 C 1.9944 7.5518836 1.9785156 7.5198555 1.9785156 7.4824219 C 1.9785156 7.1275038 2.2471127 6.8482044 2.5898438 6.8046875 C 2.6190337 6.8020275 2.6436081 6.7871094 2.6738281 6.7871094 z M 16.945312 11.166016 L 20.945312 11.166016 L 20.945312 14.166016 L 23.945312 14.166016 L 23.945312 18.166016 L 20.945312 18.166016 L 20.945312 21.166016 L 16.945312 21.166016 L 16.945312 18.166016 L 13.955078 18.166016 L 13.955078 14.166016 L 16.945312 14.166016 L 16.945312 11.166016 z "
     id="path818" />
</svg>

<svg xmlns="http://www.w3.org/2000/svg" version="1" viewBox="0 0 24 24">
  <path fill="#333" fill-opacity=".99533" d="M1.8223 2.7012c-1.012 0-1.8281.81214-1.8281 1.8242v3.0469c0 .04734.012165.090502.015625.13672v8.9102h-.017578v2.8535c0 1.0121.81412 1.8262 1.8262 1.8262h20.359c1.0121 0 1.8262-.81412 1.8262-1.8262v-2.4434h.003906v-12.291h-13.221l-2.041-2.0371h-6.9238zm.85156 4.0859h21.298359l.009766 1.3906h-20.475v2.6973c0 .516-.34198.93164-.76562.93164-.42364 0-.76367-.41564-.76367-.93164V7.7188c0-.046217.016134-.086347.021484-.13086-.0056-.036007-.021484-.068035-.021484-.10547 0-.35492.2686-.63422.61133-.67773.02919-.00266.053764-.017578.083984-.017578zm14.271 4.3789h4v3h3v4h-3v3h-4v-3h-2.9902v-4h2.9902v-3z"/>
</svg>
